icons/op-home-24.svg

<svg width="24" height="24" viewBox="0 0 24 24" fill="none" xmlns="http://www.w3.org/2000/svg">
<path d="M16.9628 8.7234V5.17872H14.8963V7.20426L11.953 5L4 10.8383L5.47162 12.417L6.59883 11.7617V19H17.9961V11.7617L18.8415 12.417L20 10.8383L16.9628 8.7234ZM13.863 18.017H9.69863V13.0723H13.863V18.017Z" fill="black"/>
</svg>

<svg xmlns="http://www.w3.org/2000/svg" width="24" height="24" viewBox="0 0 24 24"><path d="M16.963 8.723V5.179h-2.067v2.025L11.953 5 4 10.838l1.472 1.579 1.127-.655V19h11.397v-7.238l.845.655L20 10.838l-3.037-2.115Zm-3.1 9.294H9.699v-4.945h4.164v4.945Z"/></svg>
